assets/svg/app/success.svg

<svg width="78" height="78" viewBox="0 0 78 78" fill="none" xmlns="http://www.w3.org/2000/svg">
<g filter="url(#filter0_d)">
<path fill-rule="evenodd" clip-rule="evenodd" d="M39 61C51.1503 61 61 51.1503 61 39C61 26.8497 51.1503 17 39 17C26.8497 17 17 26.8497 17 39C17 51.1503 26.8497 61 39 61ZM39 63C52.2548 63 63 52.2548 63 39C63 25.7452 52.2548 15 39 15C25.7452 15 15 25.7452 15 39C15 52.2548 25.7452 63 39 63Z" fill="#31D8A4"/>
</g>
<path d="M35.7951 42.875L31.6251 38.705L30.2051 40.115L35.7951 45.705L47.7951 33.705L46.3851 32.295L35.7951 42.875Z" fill="#31D8A4"/>
<defs>
<filter id="filter0_d" x="0" y="0" width="78" height="78" filterUnits="userSpaceOnUse" color-interpolation-filters="sRGB">
<feFlood flood-opacity="0" result="BackgroundImageFix"/>
<feColorMatrix in="SourceAlpha" type="matrix" values="0 0 0 0 0 0 0 0 0 0 0 0 0 0 0 0 0 0 127 0"/>
<feOffset/>
<feGaussianBlur stdDeviation="7.5"/>
<feColorMatrix type="matrix" values="0 0 0 0 0.266667 0 0 0 0 0.937255 0 0 0 0 0.756863 0 0 0 0.6 0"/>
<feBlend mode="normal" in2="BackgroundImageFix" result="effect1_dropShadow"/>
<feBlend mode="normal" in="SourceGraphic" in2="effect1_dropShadow" result="shape"/>
</filter>
</defs>
</svg>

<svg width="78" height="78" fill="none" xmlns="http://www.w3.org/2000/svg">
    <g filter="url(#a)">
        <path fill-rule="evenodd" clip-rule="evenodd" d="M39 61c12.15 0 22-9.85 22-22s-9.85-22-22-22-22 9.85-22 22 9.85 22 22 22Zm0 2c13.255 0 24-10.745 24-24S52.255 15 39 15 15 25.745 15 39s10.745 24 24 24Z" fill="#31D8A4"/>
    </g>
    <path d="m35.795 42.875-4.17-4.17-1.42 1.41 5.59 5.59 12-12-1.41-1.41-10.59 10.58Z" fill="#31D8A4"/>
    <defs>
        <filter id="a" x="0" y="0" width="78" height="78" filterUnits="userSpaceOnUse" color-interpolation-filters="sRGB">
            <feFlood flood-opacity="0" result="BackgroundImageFix"/>
            <feColorMatrix in="SourceAlpha" values="0 0 0 0 0 0 0 0 0 0 0 0 0 0 0 0 0 0 127 0"/>
            <feOffset/>
            <feGaussianBlur stdDeviation="7.5"/>
            <feColorMatrix values="0 0 0 0 0.266667 0 0 0 0 0.937255 0 0 0 0 0.756863 0 0 0 0.6 0"/>
            <feBlend in2="BackgroundImageFix" result="effect1_dropShadow"/>
            <feBlend in="SourceGraphic" in2="effect1_dropShadow" result="shape"/>
        </filter>
    </defs>
</svg>
